X:1
T:Quae Gabrielis
T:Heinrich Isaac
T:Source : Bicinia---Tomus II---Wittemberg---G.Rau---1545. Editor : André Vierendeels (23/06/17).
T:Notes : Original clefs : G2, C3 Original note values have been halved Editorial accidentals above the staff Square brackets indicate ligatures  
T:Quae Gabrielis
T:©
T:©
C:Heinrich Isaac
Z:©
%%score [ 1 2 ]
L:1/8
Q:1/4=120
M:2/2
K:F
V:1 treble nm="Soprano" snm="S"
V:2 treble-8 nm="Tenor" snm="T"
V:1
 G8 | F4 G4 | B4 c4 | c4 G4 | z2 G2 B3 A | G2 B2 c3 B | A2 c2 d3 c | BA B2 c3 B | AG A2 B2 G2- | %9
w: Quae|Ga- bri-|e- *|||||||
 G2 F2 G4 | z2 B2 B3 c | dcde f4- | f2 ed c2 F2- | FGAB cG d2- | d2 c2 d4 | z2 B2 B3 c | dcde f4- | %17
w: * * lis,|ar- chan- *||||* ge- li,|[ar- chan- *||
 f2 e2 d2 c2- | cF B2 B2 A2 | B8 | z2 G2 c4 | B2 A2 G4 | F4 z2 B2 | A3 B G4 | F8 | z2 A2- ABcd | %26
w: ||||* * ge-|li] di-||ctis|cre- * di- * *|
 cBAG B2 A2- | AG G4 F2 | G8 |] %29
w: |* * di- *|sti.|
V:2
 z8 | z4 G4- | G4 F4 | G4 B4 | c4 B2 G2- | G2 g2 e2 f2- | f2 e2 defe/f/ | g3 f ed e2 | fedc dB c2 | %9
w: |Quae|_ Ga-|bri- e-||||||
 A4 G4- | G4 z2 B2 | B3 c dcde | f2 F2 F3 G | ABcd efgd | e4 d4- | d8 | z2 B2 B3 c | dcde f2 ed | %18
w: * lis,|_ ar-|chan- * * * * *|* * ge- *||* li,|_|ar- chan- *||
 _edcB c4 | B2 G2 z2 d2 | g4 f2 e2 | dc f4 e2 | (3:2:2f4 B2 (3A2 B2 G2 |"^#" F2 f4 e2 | %24
w: |||* * * ge-|li di- * * *|ctis, [di- *|
 f2 d2 z2 d2 | defg f2 ed | edcB d2 cB | cBAG A4 | G8 |] %29
w: * ctic,] cre-||* * * * di- * *|* * * * di-|sti.|

